svg/part/love_fill.svg

<?xml version="1.0" encoding="UTF-8"?>
<svg width="24px" height="24px" viewBox="0 0 24 24" version="1.1" xmlns="http://www.w3.org/2000/svg" xmlns:xlink="http://www.w3.org/1999/xlink">
    <title>love_fill</title>
    <g id="Icon" stroke="none" stroke-width="1" fill="none" fill-rule="evenodd">
        <g id="Part" transform="translate(-480.000000, -240.000000)" fill-rule="nonzero">
            <g id="love_fill" transform="translate(480.000000, 240.000000)">
                <path d="M24,0 L24,24 L0,24 L0,0 L24,0 Z M12.5935,23.2578 L12.5819,23.2595 L12.5109,23.295 L12.4919,23.2987 L12.4767,23.295 L12.4057,23.2595 C12.3958,23.2564 12.387,23.259 12.3821,23.2649 L12.378,23.2758 L12.3609,23.7031 L12.3659,23.7235 L12.3769,23.7357 L12.4805,23.8097 L12.4953,23.8136 L12.5071,23.8097 L12.6107,23.7357 L12.6233,23.7197 L12.6267,23.7031 L12.6096,23.2758 C12.6076,23.2657 12.601,23.2593 12.5935,23.2578 Z M12.8584,23.1453 L12.8445,23.1473 L12.6598,23.2397 L12.6499,23.2499 L12.6472,23.2611 L12.6651,23.6906 L12.6699,23.7034 L12.6784,23.7105 L12.8793,23.8032 C12.8914,23.8069 12.9022,23.803 12.9078,23.7952 L12.9118,23.7812 L12.8777,23.1665 C12.8753,23.1546 12.8674,23.147 12.8584,23.1453 Z M12.143,23.1473 C12.1332,23.1424 12.1222,23.1453 12.1156,23.1526 L12.1099,23.1665 L12.0758,23.7812 C12.0751,23.7927 12.0828,23.8019 12.0926,23.8046 L12.1083,23.8032 L12.3092,23.7105 L12.3186,23.7024 L12.3225,23.6906 L12.3404,23.2611 L12.3372,23.2485 L12.3278,23.2397 L12.143,23.1473 Z" id="MingCute"></path>
                <path d="M9.4984,5.79268 C10.918,3.88864 13.0525,3.33321 15.0165,3.86777 C17.1369,4.44493 19.0014,6.2662 19.6204,8.80223 C19.6519,8.93163 19.6794,9.06143 19.7027,9.19163 C18.8374,8.8849 17.8797,8.84036 16.9286,9.12255 C15.642,8.16961 14.048,8.01043 12.6309,8.53255 C10.856,9.18652 9.4698,10.848 9.1495,12.9375 C8.7391871,15.6141774 10.3694486,18.0174834 12.6737715,20.0617711 L13.0616,20.3981 L13.0616,20.3981 C12.7494,20.4201 12.4306,20.3705 12.1274,20.3064 C11.9725,20.2737 11.81325,20.234125 11.661025,20.1937375 L11.1239,20.0442 C6.35085,18.7015 3.1542,16.5987 2.23729,13.46 C1.50529,10.9543 2.20935,8.44477 3.75716,6.88469 C5.19069,5.43979 7.31697,4.85353 9.4984,5.79268 Z M11.1264,13.2406 C11.5544,10.4486 14.783,9.07297 16.4407,11.4685 C16.4727,11.5148 16.5388,11.5265 16.5848,11.4939 C18.9618,9.80982 21.5252,12.2067 20.9725,14.9767 C20.6520259,16.5827296 19.1618586,17.9161337 16.5020872,18.9767338 L16.0673949,19.1469092 L16.0673949,19.1469092 L15.8039316,19.2551416 C15.5771563,19.3435703 15.3371875,19.4151875 15.1205,19.377 C14.9038125,19.33875 14.7028281,19.1893672 14.5199639,19.0287295 L14.2109,18.749 L14.2109,18.749 C11.8969,16.7578 10.8687,14.9216 11.1264,13.2406 Z" id="形状" fill="#09244B"></path>
            </g>
        </g>
    </g>
</svg>

<svg xmlns="http://www.w3.org/2000/svg" width="24" height="24"><g fill="none" fill-rule="nonzero"><path d="M24 0v24H0V0h24ZM12.594 23.258l-.012.002-.071.035-.02.004-.014-.004-.071-.036c-.01-.003-.019 0-.024.006l-.004.01-.017.428.005.02.01.013.104.074.015.004.012-.004.104-.074.012-.016.004-.017-.017-.427c-.002-.01-.009-.017-.016-.018Zm.264-.113-.014.002-.184.093-.01.01-.003.011.018.43.005.012.008.008.201.092c.012.004.023 0 .029-.008l.004-.014-.034-.614c-.003-.012-.01-.02-.02-.022Zm-.715.002a.023.023 0 0 0-.027.006l-.006.014-.034.614c0 .012.007.02.017.024l.015-.002.201-.093.01-.008.003-.011.018-.43-.003-.012-.01-.01-.184-.092Z"/><path fill="#09244B" d="M9.498 5.793c1.42-1.904 3.555-2.46 5.519-1.925 2.12.577 3.984 2.398 4.603 4.934.032.13.06.26.083.39a4.453 4.453 0 0 0-2.774-.07c-1.287-.952-2.881-1.112-4.298-.59-1.775.655-3.161 2.316-3.482 4.406-.41 2.676 1.22 5.08 3.525 7.124l.388.336c-.313.022-.631-.027-.935-.092a9.474 9.474 0 0 1-.466-.112l-.537-.15C6.35 18.701 3.154 16.6 2.237 13.46c-.732-2.506-.028-5.015 1.52-6.575 1.434-1.445 3.56-2.031 5.741-1.092Zm1.628 7.448c.428-2.792 3.657-4.168 5.315-1.772a.104.104 0 0 0 .144.025c2.377-1.684 4.94.713 4.387 3.483-.32 1.606-1.81 2.94-4.47 4l-.435.17-.263.108c-.227.089-.467.16-.684.122-.216-.038-.417-.188-.6-.348l-.31-.28c-2.313-1.991-3.341-3.827-3.084-5.508Z"/></g></svg>
